X: 38890
T: Sunset On The Erne
R: waltz
M: 3/4
K: Amajor
AB|:c4 BA|FA3 F2|E2C2B,2|A,4 AB|c4 BA|F2 FE (3FGA|B6|B4 AB|
c4 BA|FA3 F2|E2C2B,2|A,4 AB|c e2 f (3cBA|B2 BAGB|A6|1 A2f2e2:|2 A4||
|:Bc|d4(3Adf|a2g2f2|e3f ed|cB A2 Ac|B2 B2 Bc|dc BA GB|A2 AB cd|e4e2|
A,D DD FD|AF dA fd|e3f ed|cB A2 AB|ce2f (3cBA|B2 BAGB|A6|A4:|

